vendor/shopware/storefront/Resources/app/storefront/dist/assets/icon/default/view-split.svg

<svg xmlns="http://www.w3.org/2000/svg" width="24" height="24" viewBox="0 0 24 24">
  <path fill="#758CA3" fill-rule="evenodd" d="M14,2 L14,22 L22,22 L22,2 L14,2 Z M14,8.95550994e-16 L22,8.95550994e-16 C23.1045695,6.85269983e-16 24,0.8954305 24,2 L24,22 C24,23.1045695 23.1045695,24 22,24 L14,24 C12.8954305,24 12,23.1045695 12,22 L12,2 C12,0.8954305 12.8954305,1.97926528e-15 14,8.95550994e-16 Z M9,1 C9.55228475,1 10,1.44771525 10,2 C10,2.55228475 9.55228475,3 9,3 L1,3 C0.44771525,3 0,2.55228475 0,2 C0,1.44771525 0.44771525,1 1,1 L9,1 Z M9,5 C9.55228475,5 10,5.44771525 10,6 C10,6.55228475 9.55228475,7 9,7 L1,7 C0.44771525,7 0,6.55228475 0,6 C0,5.44771525 0.44771525,5 1,5 L9,5 Z M9,9 C9.55228475,9 10,9.44771525 10,10 C10,10.5522847 9.55228475,11 9,11 L1,11 C0.44771525,11 0,10.5522847 0,10 C0,9.44771525 0.44771525,9 1,9 L9,9 Z M9,13 C9.55228475,13 10,13.4477153 10,14 C10,14.5522847 9.55228475,15 9,15 L1,15 C0.44771525,15 0,14.5522847 0,14 C0,13.4477153 0.44771525,13 1,13 L9,13 Z M9,17 C9.55228475,17 10,17.4477153 10,18 C10,18.5522847 9.55228475,19 9,19 L1,19 C0.44771525,19 0,18.5522847 0,18 C0,17.4477153 0.44771525,17 1,17 L9,17 Z M9,21 C9.55228475,21 10,21.4477153 10,22 C10,22.5522847 9.55228475,23 9,23 L1,23 C0.44771525,23 0,22.5522847 0,22 C0,21.4477153 0.44771525,21 1,21 L9,21 Z"/>
</svg>

<svg xmlns="http://www.w3.org/2000/svg" width="24" height="24" viewBox="0 0 24 24"><path fill="#758CA3" fill-rule="evenodd" d="M14 2v20h8V2h-8zm0-2h8c1.1046 0 2 .8954 2 2v20c0 1.1046-.8954 2-2 2h-8c-1.1046 0-2-.8954-2-2V2c0-1.1046.8954-2 2-2zM9 1c.5523 0 1 .4477 1 1s-.4477 1-1 1H1c-.5523 0-1-.4477-1-1s.4477-1 1-1h8zm0 4c.5523 0 1 .4477 1 1s-.4477 1-1 1H1c-.5523 0-1-.4477-1-1s.4477-1 1-1h8zm0 4c.5523 0 1 .4477 1 1s-.4477 1-1 1H1c-.5523 0-1-.4477-1-1s.4477-1 1-1h8zm0 4c.5523 0 1 .4477 1 1s-.4477 1-1 1H1c-.5523 0-1-.4477-1-1s.4477-1 1-1h8zm0 4c.5523 0 1 .4477 1 1s-.4477 1-1 1H1c-.5523 0-1-.4477-1-1s.4477-1 1-1h8zm0 4c.5523 0 1 .4477 1 1s-.4477 1-1 1H1c-.5523 0-1-.4477-1-1s.4477-1 1-1h8z"/></svg>
